X:1
T:The Lady's Fan
M:3/2
L:1/8
K:C
 D2| D2D-E F2F-G|A-BA-G
M:2/2
| E2 D4 A2|
M:3/2
 d3 e d2A-GA-B c2| d6 c2 B2c-d| d4 d2 c2c-B A2| G4 A2A-B c3 A| B2A-G E2 DD D4-|\
 D2||
